X:1
T:Title
L:1/4
M:none
I:linebreak $
K:G
V:1 treble
V:1
 G, G,/G,/ B, B, | D/D/ D G2 | C2 E3/2 (E/ | G/)E/ G c2 |$ (A/ B) (c/ B/A/)G/E/ | D D F A | %6
"G" G2 G3/2 (A/ | G) |: f g ^g ||$ a3/2 b/ a g | (f e) d B | A3/2 B/ A G | (F E) D F |$ %13
 A2 A3/2 (B/ | ^c) A B c |1 d2 d3/2 [Ge] | d :|2 d2 =c2 | B2 A2 || %19
